!!!OTL: 1981. Evangelisches Glaubens- und Heldenlied von Dr. M. Luther, nach Ps. 46: Deus noster refugium et virtus.
!!!ARE: Europa, Mitteleuropa, Deutschland
!!!SCT: E1981
!!!TXL: @@DE
!!!YEM: Copyright 1995, estate of Helmut Schaffrath.
**kern	**text
*ICvox	*
*M4/4	*
*met(c)	*
*k[]	*
*C:	*
!LO:TX:a:t=Heutige Choralform.	!
{4cc	Ein
=1	=1
4cc	fe-
4cc	-ſte
4g	Burg
4b/	iſt
=2	=2
8ccL	un-
8bJ	.
4a	-ſer
4g;}	Gott,
{4cc	ein
=3	=3
4b/	gu-
4a	-te
4g	Wehr
4a	und
=4	=4
8fL	Waf-
8eJ	.
4d	.
4c;}	-fen.
{4cc	Er
=5	=5
4cc	hilft
4cc	uns
4g	frei
4b/	aus
=6	=6
8ccL	al-
8bJ	.
4a	-ler
4g;}	Noth,
{4cc	die
=7	=7
4b/	uns
4a	jetʒt
4g	hat
4a	be-
=8	=8
8fL	-trof-
8eJ	.
4d	.
4c;}	-fen.
{4c	Der
=9	=9
(4g	alt
4a)	.
4g	bö-
4f#	-ſe
=10	=10
2.g;}	Feind,
{4c	mit
=11	=11
2g\	Ernſt
4a	ers
4b/	jetʒt
=12	=12
2.cc;}	meint;
{4b	groß
=13	=13
4cc	Macht
4b	und
2a	viel
=14	=14
2.g;}	Liſt
{4a	ſein
=15	=15
4a	grau-
4g	-ſam
4a	Rü-
4f	-ſtung
=16	=16
2.e;}	iſt,
{4cc	auf
=17	=17
4b	Erd
4a	iſt
4g	nicht
4a	ſeins
=18	=18
8fL	glei-
8eJ	.
4d	.
4c;}	-chen.
==	==
!!!AGN: geistlich, Lob - Lied
!!!ONB: ESAC (Essen Associative Code) Database: ERK3
!!!AMT: simple quadruple
!!!AIN: vox
!!!EED: Helmut Schaffrath
!!!EEV: 1.0
!!!GTL: Geistliche Lieder. 2. Gottesglaube und Gottesverehrung in Liedern: Bitt-, Lob-, Dank- und Trostlieder, nebst einigen Lehrgesaengen. 
!!!URL-scan: https://rosdok.uni-rostock.de/mcrviewer/recordIdentifier/rosdok_ppn745177999/iview2/phys_0693.iview2?x=167.58329267015188&y=178.00111477728933&scale=0.7014306698522891&rotation=0&layout=singlePageLayout
!!!ENC: Anna Maria Matuszewska
!!!EEV: 2025/10/01
*-	*-
